!!!OTL: Des Pfalzgrafen Töchterlein (51a),
!!!id: T0187
**kern
*clefG2
*k[f#c#]
*D:
{8a
8b
8a
=1
4.f#
8f#
8e
8a
=2
4.g}
=3
{8a
8cc#
8cc#
=4
4.b
8f#
8b
8b
=5
4a}
8r
=6
{8a
8b
8cc#
=7
4.dd
16a
16a
8cc#
8cc#
=8
4.b}
=9
{8f#
8b
8b
=10
4.a
16d
16e
8f#
8e
=11
4d}
8r
==
*-
!!!minrhy: 16
!!!meters: 3/4 ]  ZZ[4
!!!cut1: Des Pfalzgrafen Töchterlein (51a),
!!!cut2: Melodie II, S. 159
!!!reg: Luxemburg
!!!trd: Singendes Volk, Esch-Alzette 1937 posth.
!!!rhy1: X_X_X_  X__.X_X_X_  X__.   (x2)
!!!rhy2: X_X_X_  X__.X_X_X_  X__0
!!!key: T0187  16  D 3/4 ]  ZZ[4
!!!mod: HEPTATONIK IONISCH]  AMBITUS[8
!!!kad: 4561
!!!akz: 34_65_+16_51_
!!!fot: 'a__b__c__d__
!!!for: 'a__av_b__bv_
!!!fok: 'Vd_~__^a_Md_
!! PHRAS[AUFTAKTIG]
!!!fkt: Liebeslieder
!!!bem: Boxhorn, 1900
!! THILL, Mathias:
!! PR[35] 2K[0] 2G[9] 3K[4] 3G[0] 4A[4] 4Ü[0] 5A[4] 6K[0] 6G[4]
!! 7K[0] 7G[0] 8A[0] MEHR[0] SI[26] ABS[23] SR[9] SP[17]
!! ST[6] 2k[0] 2g[26] 3k[9] 3g[0] 4d[4] 4ü[0] 5d[0] 6k[0] 6g[0]
!! 7k[0] 7g[0] 8d[0] mehr[0] si[39] dm[-13] sr[26] sp[13]
!! 1F[71] 2F[8] 3F[0] 4F[0] LF[0] 2P[21] 3P[0] 4P[0] TRI[0] DF[3] AB[24]
!! TF[0] U3K[0] U3[0] U4[0] U4Ü[0] U5[21] U6K[0] U6[8] U7K[0] U7[8]
!! N1[13] N2K[0] N2[21] N3K[0] N3[25] N4[0] N4Ü[0] N5[4] N6K[0] N6[0]
!!!n7k: 0] N7[0] O1[0] O2K[0] O2[0] O3K[0] O3[0] HÖ[0
